!!!COM: Joplin, Scott
!!!CDT: 1868/11/24/-1917/04/01/
!!!OTL: Weeping Willow
!!!ONB: Rag
!!!ODT: 1903///
**kern	**kern	**dynam
*staff2	*staff1	*staff1/2
*Ipiano	*Ipiano	*Ipiano
*>[I,A,A1,A,A2,B,B1,B,B2,C,D,D1,D,D2,E,E1,E,E2]	*>[I,A,A1,A,A2,B,B1,B,B2,C,D,D1,D,D2,E,E1,E,E2]	*>[I,A,A1,A,A2,B,B1,B,B2,C,D,D1,D,D2,E,E1,E,E2]
*>norep[I,A,A2,B,B2,C,D,D2,E,E2]	*>norep[I,A,A2,B,B2,C,D,D2,E,E2]	*>norep[I,A,A2,B,B2,C,D,D2,E,E2]
*>I	*>I	*>I
*clefF4	*clefG2	*clefG2
*k[f#]	*k[f#]	*k[f#]
*M2/4	*M2/4	*M2/4
*MM100	*MM100	*MM100
=1-	=1-	=1-
*	*^	*
2r	16dd/LL	16d\LL	f
.	16cc#/	16c#\	.
.	16dd/	16d\	.
.	16ee/JJ	16e\JJ	.
.	8ff#/L	8f#\L	.
.	8gg/J	8g\J	.
=2	=2	=2	=2
2r	8dd/L	8d\L	.
.	[8dd/J	[8d\J	.
.	16dd/LL]	16d\LL]	.
.	16ee/	16e\	.
.	16cc/	16c\	.
.	16a/JJ	16A\JJ	.
*	*v	*v	*
=3	=3	=3
16G\LL	16g/LL	.
16F#\	16f#/	.
16G\	16g/	.
16A\JJ	16a/JJ	.
8B\L	8b/L	.
8c\J	8cc/J	.
=4	=4	=4
8D\L	8d/L	.
[8D\J	[8d/J	.
16D\]	16d/LL]	.
16r	16g/	.
8r	16a/	.
.	16b/JJ	.
=5!|:	=5!|:	=5!|:
*>A	*>A	*>A
8GG\L	4g\ 4b\ 4dd\	f
8D\ 8G\ 8B\J	.	.
8DD\L	4g\ 4b\ 4gg\	.
8D\ 8G\ 8B\J	.	.
=6	=6	=6
*	*^	*
8GG\L	16g/ 16b/LL	4r	.
.	16a#/	.	.
8D\ 8G\ 8B\J	16g/ 16b/	.	.
.	[16fn/ [16g/ [16b/ [16dd/JJ	.	.
8BB\L	16f/] 16g/] 16b/] 16dd/LK]	16r	.
.	8dd/	8.f\ 8.g\ 8.b\	.
8D\ 8G\ 8B\J	.	.	.
.	16ee/Jk	.	.
=7	=7	=7	=7
*^	*	*	*
8C\L	4C/	16dd/LK	8.e\ 8.g\L	.
.	.	8cc/	.	.
8E\ 8G\ 8c\J	.	.	.	.
.	.	[16g/Jk	[16e\Jk	.
8C\L	4C/	16g/LK]	16e\LK]	.
.	.	8a/	8.e-\J	.
8E-\ 8G\ 8c\J	.	.	.	.
.	.	16g/Jk	.	.
*v	*v	*	*	*
*	*v	*v	*
=8	=8	=8
8GG\L	16d/ 16b/LL	.
.	16g/	.
8D\ 8G\ 8B\J	16e/	.
.	[16d/JJ	.
8D\ 8G\ 8B\	16d/LL]	.
.	16g/	.
8r	16a/	.
.	16b/JJ	.
=9	=9	=9
8GG\L	4g\ 4b\ 4dd\	.
8D\ 8G\ 8B\J	.	.
8EE\L	4g\ 4b\ 4gg\	.
8E\ 8G\ 8B\J	.	.
=10	=10	=10
8AA\L	16dd\ 16ff#\LL	.
.	16ee#\	.
8F#\ 8A\ 8d\J	16dd\ 16ff#\	.
.	[16dd\ [16ff#\ [16aa\JJ	.
8FF#\L	16dd\] 16ff#\] 16aa\LL]	.
.	16dd\	.
8F#\ 8A\ 8d\J	16ff#\	.
.	16aa\JJ	.
=11	=11	=11
*	*^	*
8EE\L	16bb/LL	4.cc#\	.
.	16gg/	.	.
8G\ 8A\ 8c#\J	16ee/	.	.
.	[16cc#/JJ	.	.
8AA\L	16cc#/LL]	.	.
.	16a/	.	.
8G\ 8A\ 8c#\J	16b/	8g\	.
.	16cc#/JJ	.	.
*	*v	*v	*
=12	=12	=12
8D\ 8A\ 8d\L	[4f#/ [4dd/	.
8AA\ 8A\	.	.
8DD\ 8D\J	8f#/] 8dd/L]	.
8r	16g/L	.
.	16a/JJ	.
=13	=13	=13
8GG\L	4g\ 4b\ 4dd\	.
8D\ 8G\ 8B\J	.	.
8DD\L	4g\ 4b\ 4gg\	.
8D\ 8G\ 8B\J	.	.
=14	=14	=14
*	*^	*
8GG\L	16g/ 16b/LL	4r	.
.	16a#/	.	.
8D\ 8G\ 8B\J	16g/ 16b/	.	.
.	[16fn/ [16g/ [16b/ [16dd/JJ	.	.
8BB\L	16f/] 16g/] 16b/] 16dd/LK]	16r	.
.	8dd/	8.f\ 8.g\ 8.b\	.
8D\ 8B\J	.	.	.
.	16ee/Jk	.	.
=15	=15	=15	=15
8C\L	16dd/LK	8.e\ 8.g\L	.
.	8cc/	.	.
8E\ 8G\ 8c\J	.	.	.
.	[16g/Jk	[16e\Jk	.
8C\L	16g/LK]	16e\LK]	.
.	8a/	8.e-\J	.
8E\ 8G\ 8c\J	.	.	.
.	16g/Jk	.	.
*	*v	*v	*
=16	=16	=16
8GG\L	16d/ 16b/LL	.
.	16g/	.
8D\ 8G\ 8B\	16e/	.
.	[16d/JJ	.
8D\ 8G\ 8B\J	16d/LL]	.
.	16b/	.
8r	16a#/	.
.	16b/JJ	.
=17	=17	=17
8F#\L	4b\ 4dd#\	.
8A\ 8B\J	.	.
8BB\L	8.b\ 8.dd#\ 8.ff#\L	.
8A\ 8B\J	.	.
.	16aa\Jk	.
=18	=18	=18
*	*^	*
8E\L	16aa/LL	8.b\ 8.ee\L	.
.	16gg/	.	.
8G\ 8B\J	16ff#/	.	.
.	[16gg/JJ	[16a#\Jk	.
8C#\L	16gg/LL]	4a#\]	.
.	16gg/	.	.
8E\ 8G\ 8A#\J	16ff#/	.	.
.	16ee/JJ	.	.
*	*v	*v	*
=19	=19	=19
8D\L	16b\ 16ee\LL	.
.	16dd\	.
8G\ 8B\J	16cc#\	.
.	[16dd\JJ	.
8D\L	16dd/LL]	.
.	16ccn/	.
8F#\ 8A\ 8c\J	16a/	.
.	16f#/JJ	.
=20	=20	=20
*>A1	*>A1	*>A1
*^	*	*
[4B/	8G\L	[4g/	.
.	8D\J	.	.
16B/]	8E\L	16g/LL]	.
16r	.	16g/	.
8r	8D\J	16a/	.
.	.	16b/JJ	.
*v	*v	*	*
=21:|!	=21:|!	=21:|!
*>A2	*>A2	*>A2
8G\ 8B\	8g\L	.
8r	16dd\ 16ddd\L	.
.	16dd\ 16ddd\JJ	.
8BB\ 8B\L	8dd\ 8ddd\L	.
8GG#\ 8G#\J	8dd\ 8ee#\ 8bb\J	.
=22!|:	=22!|:	=22!|:
*>B	*>B	*>B
8AA\ 8A\L	[4dd\ [4ff#\ [4ccc\	f
8D\ 8F#\ 8c\J	.	.
8FF#\ 8F#\L	16dd\] 16ff#\] 16ccc\LL]	.
.	16g#\ 16b\J	.
8D\ 8F#\ 8c\J	8a\ 8cc\J	.
=23	=23	=23
8DD\ 8D\L	16e#/ 16g#/LK	.
.	8f#/ 8a/	.
8D\ 8F#\ 8c\J	.	.
.	16g#/ 16b/Jk	.
8FF#\ 8F#\L	8a\ 8cc\L	.
8D\ 8F#\ 8c\J	8cc\ 8ee\J	.
=24	=24	=24
8GG\ 8G\L	16a#\ 16cc#\LK	.
.	8b\ 8dd\	.
8D\ 8G\ 8B\J	.	.
.	[16dd\ [16gg\ [16bb\Jk	.
8DD/ 8D/L	16dd\] 16gg\] 16bb\LL]	.
.	16cc#\ 16gg\ 16aa#\	.
8D/ 8G/ 8B/J	16dd\ 16gg\ 16bb\	.
.	[16b\ [16dd\ [16gg\JJ	.
=25	=25	=25
8GG/ 8G/L	16b\] 16dd\] 16gg\LL]	.
.	16ff#\J	.
8FFn/ 8Fn/J	8b\ 8dd\ 8gg\J	.
8EE/ 8E/L	16ff#\LK	.
.	8b\ 8dd\ 8gg\	.
8DD/ 8D/J	.	.
.	[16g\Jk	.
=26	=26	=26
8CC\ 8C\L	16g\LL]	.
.	16g\	.
8G\ 8c\ 8e\J	16cc\	.
.	16ee\JJ	.
8EE/ 8E/L	8g\ 8cc\ 8gg\L	.
8EE-/ 8E-/J	16a\ 16cc\ 16aa\L	.
.	[16g\ [16b\ [16gg\JJ	.
=27	=27	=27
*	*^	*
8DD\ 8D\L	4r	16g\] 16b\] 16gg\LL]	.
.	.	16b\	.
8G\ 8B\ 8d\J	.	16dd\	.
.	.	16ee\JJ	.
8GG/ 8G/L	16ee/LL	8fn\ 8b\L	.
.	16dd/	.	.
8BBB/ 8BB/J	16ee/	8f\ 8g\J	.
.	16dd/JJ	.	.
*	*v	*v	*
=28	=28	=28
8CC\ 8C\L	16e/ 16g/ 16cc/LL	.
.	16g/	.
8G\ 8c\ 8e\J	16cc/	.
.	16ee/JJ	.
8EE/ 8E/L	8g\ 8cc\ 8gg\L	.
8EE-/ 8E-/J	16a\ 16cc\ 16aa\L	.
.	[16b\ [16dd\ [16gg\ [16bb\JJ	.
=29	=29	=29
8DD\ 8D\L	16b\] 16dd\] 16gg\] 16bb\LL]	.
.	16gg\J	.
8G\ 8B\ 8d\J	8bb\J	.
8GG/ 8G/L	8dd\ 8gg\ 8bb\ 8ddd\L	.
8GG#/ 8G#/J	8dd\ 8ee#\ 8bb\J	.
=30	=30	=30
8AA\ 8A\L	[4dd\ [4ff#\ [4ccc\	.
8D\ 8F#\ 8c\J	.	.
8FF#\ 8F#\L	16dd\] 16ff#\] 16ccc\LL]	.
.	16g#\ 16b\J	.
8D\ 8F#\ 8c\J	8a\ 8cc\J	.
=31	=31	=31
8DD\ 8D\L	16e#/ 16g#/LK	.
.	8f#/ 8a/	.
8D\ 8F#\ 8c\J	.	.
.	16g#/ 16b/Jk	.
8FF#\ 8F#\L	8a\ 8cc\L	.
8D\ 8F#\ 8c\J	8cc\ 8ee\J	.
=32	=32	=32
8GG\ 8G\L	16a#\ 16cc#\LK	.
.	8b\ 8dd\	.
8D\ 8G\ 8B\J	.	.
.	[16dd\ [16gg\ [16bb\Jk	.
8DD/ 8D/L	16dd\] 16gg\] 16bb\LL]	.
.	16cc#\ 16gg\ 16aa#\	.
8D/ 8G/ 8B/J	16dd\ 16gg\ 16bb\	.
.	[16b\ [16dd\ [16gg\JJ	.
=33	=33	=33
8GG/ 8G/L	16b\] 16dd\] 16gg\LL]	.
.	16ff#\J	.
8FFn/ 8Fn/J	8b\ 8dd\ 8gg\J	.
8EE/ 8E/L	16ff#\LK	.
.	8b\ 8dd\ 8gg\	.
8DD/ 8D/J	.	.
.	[16g\Jk	.
=34	=34	=34
8CC\ 8C\L	16g\LL]	.
.	16g\	.
8G\ 8c\ 8e\J	16cc\	.
.	16ee\JJ	.
8EE/ 8E/L	8g\ 8cc\ 8gg\L	.
8EE-/ 8E-/J	16a\ 16cc\ 16aa\L	.
.	[16g\ [16b\ [16gg\JJ	.
=35	=35	=35
*	*^	*
8DD/ 8D/L	16gg/LL]	4g\] 4b\]	.
.	16ee/	.	.
8GG/ 8G/J	16dd/	.	.
.	16b/JJ	.	.
4BB\ 4E\ 4G\ 4B\	16e/LL	4d\	.
.	16b/	.	.
.	16g/	.	.
.	16e/JJ	.	.
*	*v	*v	*
=36	=36	=36
8AA/ 8A/L	4c#/ 4g/	.
8EE/ 8E/J	.	.
4DD/ 4D/	16cn/ 16d/ 16f#/ 16a/LK	.
.	8c/ 8d/ 8f#/ 8a/	.
.	[16B/ [16d/ [16g/Jk	.
=37	=37	=37
*>B1	*>B1	*>B1
8GG\ 8G\	8B\] 8d\] 8g\L]	.
8r	16dd\ 16ddd\L	.
.	16dd\ 16ddd\JJ	.
8BB\ 8B\L	8dd\ 8ddd\L	.
8GG#\ 8G#\J	8dd\ 8ee#\ 8bb\J	.
=38:|!	=38:|!	=38:|!
*>B2	*>B2	*>B2
8GG\ 8G\L	[4B/ [4d/ [4g/	.
8D\J	.	.
8E\L	16B/] 16d/] 16g/LL]	.
.	16g/	.
8D\J	16a/	.
.	16b/JJ	.
=39	=39	=39
*>C	*>C	*>C
8GG\L	4g\ 4b\ 4dd\	f
8D\ 8G\ 8B\J	.	.
8DD\L	4g\ 4b\ 4gg\	.
8D\ 8G\ 8B\J	.	.
=40	=40	=40
*	*^	*
8GG\L	16g/ 16b/LL	4r	.
.	16a#/	.	.
8D\ 8G\ 8B\J	16g/ 16b/	.	.
.	[16fn/ [16g/ [16b/ [16dd/JJ	.	.
8BB\L	16f/] 16g/] 16b/] 16dd/LK]	16r	.
.	8dd/	8.f\ 8.g\ 8.b\	.
8D\ 8G\ 8B\J	.	.	.
.	16ee/Jk	.	.
=41	=41	=41	=41
8C\L	16dd/LK	8.e\ 8.g\L	.
.	8cc/	.	.
8E\ 8G\ 8c\J	.	.	.
.	[16g/Jk	[16e\Jk	.
8C\L	16g/LK]	16e\LK]	.
.	8a/	8.e-\J	.
8E-\ 8G\ 8c\J	.	.	.
.	16g/Jk	.	.
*	*v	*v	*
=42	=42	=42
8GG\L	16d/ 16b/LL	.
.	16g/	.
8D\ 8G\ 8B\	16e/	.
.	[16d/JJ	.
8D\ 8G\ 8B\J	16d/LL]	.
.	16g/	.
8r	16a/	.
.	16b/JJ	.
=43	=43	=43
8GG\L	4g\ 4b\ 4dd\	.
8D\ 8G\ 8B\J	.	.
8EE\L	4g\ 4b\ 4gg\	.
8E\ 8G\ 8B\J	.	.
=44	=44	=44
8AA\L	16dd\ 16ff#\LL	.
.	16ee#\	.
8F#\ 8A\ 8d\J	16dd\ 16ff#\	.
.	[16dd\ [16ff#\ [16aa\JJ	.
8FF#\L	16dd\] 16ff#\] 16aa\LL]	.
.	16dd\	.
8F#\ 8A\ 8d\J	16ff#\	.
.	16aa\JJ	.
=45	=45	=45
*	*^	*
8EE\L	16bb/LL	4.cc#\	.
.	16gg/	.	.
8G\ 8A\ 8c#\J	16ee/	.	.
.	[16cc#/JJ	.	.
8AA\L	16cc#/LL]	.	.
.	16a/	.	.
8A\ 8c#\J	16b/	8g\	.
.	16cc#/JJ	.	.
*	*v	*v	*
=46	=46	=46
8D\ 8A\ 8d\L	[4f#/ [4dd/	.
8AA\ 8A\	.	.
8DD\ 8D\J	8f#/] 8dd/L]	.
8r	16g/L	.
.	16b/JJ	.
=47	=47	=47
8GG\L	4g\ 4b\ 4dd\	.
8D\ 8G\ 8B\J	.	.
8DD\L	4g\ 4b\ 4gg\	.
8D\ 8G\ 8B\J	.	.
=48	=48	=48
*	*^	*
8GG\L	16g/ 16b/LL	4r	.
.	16a#/	.	.
8D\ 8G\ 8B\J	16g/ 16b/	.	.
.	[16fn/ [16g/ [16b/ [16dd/JJ	.	.
8BB\L	16f/] 16g/] 16b/] 16dd/LK]	16r	.
.	8dd/	8.f\ 8.g\ 8.b\	.
8D\ 8G\ 8B\J	.	.	.
.	16ee/Jk	.	.
=49	=49	=49	=49
8C\L	16dd/LK	8.e\ 8.g\L	.
.	8cc/	.	.
8E\ 8G\ 8c\J	.	.	.
.	16g/Jk	[16e\Jk	.
8C\L	16g/LK	16e\LK]	.
.	8a/	8.e-\J	.
8E-\ 8G\ 8c\J	.	.	.
.	16g/Jk	.	.
*	*v	*v	*
=50	=50	=50
8GG\L	16d/ 16b/LL	.
.	16g/	.
8D\ 8G\ 8B\	16e/	.
.	[16d/JJ	.
8D\ 8G\ 8B\J	16d/LL]	.
.	16b/	.
8r	16a#/	.
.	16b/JJ	.
=51	=51	=51
8F#\L	4b\ 4dd#\	.
8A\ 8B\J	.	.
8BB\L	8.b\ 8.dd#\ 8.ff#\L	.
8A\ 8B\J	.	.
.	16aa\Jk	.
=52	=52	=52
*	*^	*
8C\L	16aa/LL	8.b\ 8.ee\L	.
.	16gg/	.	.
8G\ 8B\J	16ff#/	.	.
.	[16gg/JJ	[16a#\Jk	.
8C#\L	16gg/LL]	4a#\]	.
.	16gg/	.	.
8E\ 8G\ 8A#\J	16ff#/	.	.
.	16ee/JJ	.	.
*	*v	*v	*
=53	=53	=53
8D\L	16b\ 16ee\LL	.
.	16dd\	.
8G\ 8B\J	16cc#\	.
.	[16dd\JJ	.
8D\L	16dd/LL]	.
.	16ccn/	.
8F#\ 8A\ 8c\J	16a/	.
.	16f#/JJ	.
=54	=54	=54
8G\ 8B\	8g/	.
8r	8r	.
8GG/ 8G/	8g\ 8b\ 8dd\ 8gg\	.
8r	8r	.
=55	=55	=55
*>D	*>D	*>D
*k[]	*k[]	*k[]
*	*^	*
8C\L	16e/LL	[4e\	mf
.	16g/	.	.
8E\ 8G\ 8c\J	16cc/	.	.
.	16dd/JJ	.	.
8GG\L	16ee/LK	8.e\L]	.
.	8gg/	.	.
8E\ 8G\ 8c\J	.	.	.
.	[16ee/Jk	[16g#\Jk	.
*	*v	*v	*
=56	=56	=56
8BB\L	16g#\] 16ee\LL]	.
.	16dd#\J	.
8E\ 8G#\ 8d\J	8g#\ 8ee\J	.
8EE\L	8g#\ 8ff\L	.
8E\ 8G#\ 8d\J	16g#\ 16ee\L	.
.	[16a\ [16cc\JJ	.
=57	=57	=57
8AA\L	16a\] 16cc\LL]	.
.	16b\J	.
8E\ 8A\ 8c\J	8a\ 8cc\J	.
8GG/ 8G/L	16e/ 16b-/ 16cc/LK	.
.	8e/ 8b-/ 8cc/	.
8CC/ 8C/J	.	.
.	[16f/ [16a/ [16cc/Jk	.
=58	=58	=58
8FF\ 8F\L	4f/_ 4a/_ 4cc/_	.
8A\ 8c\J	.	.
8C\L	16f/] 16a/] 16cc/LL]	.
.	16a/	.
8A\ 8c\J	16cc/	.
.	16ff/JJ	.
=59	=59	=59
8FF\ 8F\L	8cc\ 8ff\ 8aa\L	.
8A\ 8c\ 8f\J	8cc\ 8ff\ 8aa\J	.
8FF/ 8F/L	8cc\ 8ff\ 8aa\L	.
8FF#/ 8F#/J	8cc#\ 8dd\ 8aa-\J	.
=60	=60	=60
8GG\ 8G\L	8.cc\ 8.ee\ 8.gg\L	.
8G\ 8c\ 8e\J	.	.
.	16ee\Jk	.
8AA\ 8A\L	16cc\LL	.
.	16dd\	.
8A\ 8c\ 8e\J	16ee\	.
.	(16cc\JJ	.
=61	=61	=61
8BB\L	16b\LL	.
.	16bb\	.
8G\ 8B\ 8e\J	16gg\	.
.	[16ee\JJ)	.
8BB\L	16ee\LL]	.
.	(16gg\	.
8A\ 8B\ 8d#\J	16ff#\	.
.	16dd#\JJ)	.
=62	=62	=62
*^	*	*
4r	8E\ 8G\ 8B\ 8e\	8ee\	.
.	8r	8r	.
4F/ 4G/ 4B/	8D\L	4g\ 4gg\	.
.	8GG\J	.	.
*v	*v	*	*
=63	=63	=63
*	*^	*
8C\L	16e/LL	[4e\	.
.	16g/	.	.
8E\ 8G\ 8c\J	16cc/	.	.
.	16dd/JJ	.	.
8GG\L	16ee/LK	8.e\L]	.
.	8gg/	.	.
8E\ 8G\ 8c\J	.	.	.
.	[16ee/Jk	[16g#\Jk	.
*	*v	*v	*
=64	=64	=64
8BB\L	16g#\] 16ee\LL]	.
.	16dd#\J	.
8E\ 8G#\ 8d\J	8g#\ 8ee\J	.
8EE\L	8g#\ 8ff\L	.
8E\ 8G#\ 8d\J	16g#\ 16ee\L	.
.	[16a\ [16cc\JJ	.
=65	=65	=65
8AA\L	16a\] 16cc\LL]	.
.	16b\J	.
8E\ 8A\ 8c\J	8a\ 8cc\J	.
8GG/ 8G/L	16e/ 16b-/ 16cc/LK	.
.	8e/ 8b-/ 8cc/	.
8CC/ 8C/J	.	.
.	[16f/ [16a/ [16cc/Jk	.
=66	=66	=66
8FF\ 8F\L	4f/_ 4a/_ 4cc/_	.
8A\ 8c\J	.	.
8C\L	16f\] 16a\] 16cc\LL]	.
.	16a\	.
8A\ 8c\J	16cc\	.
.	16ff\JJ	.
=67	=67	=67
8FF\ 8F\L	8cc\ 8ff\ 8aa\L	.
8A\ 8c\ 8f\J	8cc\ 8ff\ 8aa\J	.
8FF/ 8F/L	8cc\ 8ff\ 8aa\L	.
8FF#/ 8F#/J	8cc\ 8dd#\ 8aa-\J	.
=68	=68	=68
8GG\ 8G\L	8.cc\ 8.ee\ 8.gg\L	.
8G\ 8c\ 8e\J	.	.
.	16ee\Jk	.
8AA\ 8A\L	16cc\LL	.
.	16dd\J	.
8A\ 8c\ 8e\J	8ee\J	.
=69	=69	=69
8D\ 8d\L	4f#/ 4cc/	.
8AA\ 8A\J	.	.
4GG/ 4G/	16fn/ 16b/ 16dd/LK	.
.	8f/ 8b/ 8dd/	.
.	[16e/ [16g/ [16cc/Jk	.
=70	=70	=70
*>D1	*>D1	*>D1
8C\ 8c\L	8e/] 8g/] 8cc/L]	.
8GG\J	8g/J	.
8AA/L	8f#/L	.
8BB/J	8fn/J	.
=71:|!	=71:|!	=71:|!
*>D2	*>D2	*>D2
8C\ 8c\	8e/ 8g/ 8cc/L	.
8r	(16g/L	.
.	16a/JJ)	.
4r	(16b\LL	<
.	16cc\	.
.	16dd\	.
.	16ee\JJ)	.
=72!|:	=72!|:	=72!|:
*>E	*>E	*>E
8G\ 8g\L	4b\ 4dd\	f
8F\ 8f\	.	.
8D\ 8d\	[4b\ [4gg\	.
8BB\ 8B\J	.	.
=73	=73	=73
8GG/ 8G/L	16b\] 16gg\LL]	.
.	16dd\	.
8GG#/ 8G#/J	16b\ 16bb\	.
.	16dd\JJ	.
8AA\ 8A\L	16ff\LL	.
.	16aa\	.
8BB\ 8B\J	16gg\	.
.	16ff\JJ	.
=74	=74	=74
8C\ 8c\L	16ee\LL	.
.	16dd#\	.
8G\ 8c\ 8e\J	16ee\	.
.	[16gg\JJ	.
8E\L	4gg\]	.
8G\ 8c\ 8e\J	.	.
=75	=75	=75
4F#\ 4A\ 4c\ 4d#\	16cc\LL	.
.	16dd#\	.
.	16ff#\	.
.	16aa\JJ	.
8G\ 8c\ 8e\	16gg\LL	.
.	16ee\	.
8r	16gg\	.
.	16ccc\JJ	.
=76	=76	=76
8D\ 8d\L	8dd\ 8ff\ 8ccc\L	.
8G\ 8B\ 8f\J	16dd\ 16ff\ 16bb\L	.
.	[16dd\ [16ff\ [16bb\JJ	.
8GG\ 8G\L	16dd\] 16ff\] 16bb\LL]	.
.	16dd\ 16ff\ 16aa#\J	.
8G\ 8B\ 8f\J	8dd\ 8ff\ 8bb\J	.
=77	=77	=77
16BB\ (16B\LL	[4dd\ [4ff\	.
16BB-\ 16B-\	.	.
16AA\ 16A\	.	.
16AA-\ 16A-\JJ	.	.
8GG\ 8G\L)	16dd\] 16ff\LL]	.
.	16dd\	.
8G\ 8Bn\ 8f\J	16ff\	.
.	16bb\JJ	.
=78	=78	=78
8C\ 8c\L	8cc\ 8ee\ 8bb\L	.
8G\ 8c\ 8e\J	16cc\ 16ee\ 16aa\L	.
.	[16cc\ [16ee\ [16aa\JJ	.
8GG\ 8G\L	16cc\] 16ee\] 16aa\LL]	.
.	16cc\ 16ee\ 16gg#\J	.
8G\ 8c\ 8e\J	8cc\ 8ee\ 8aa\J	.
=79	=79	=79
16C\ (16c\LL	[4cc\ [4ee\	.
16BB\ 16B\	.	.
16AA\ 16A\	.	.
16AA-\ 16A-\JJ	.	.
8GG/ 8G/)	16cc\] 16ee\LL]	.
.	16g\	.
8r	16cc\	.
.	16ee\JJ	.
=80	=80	=80
8G\ 8g\L	4b\ 4dd\	.
8F\ 8f\	.	.
8D\ 8d\	[4b\ [4gg\	.
8BB\ 8B\J	.	.
=81	=81	=81
8GG/ 8G/L	16b\] 16gg\LL]	.
.	16dd\	.
8GG#/ 8G#/J	16b\ 16bb\	.
.	16dd\JJ	.
8AA\ 8A\L	16ff\LL	.
.	16aa\	.
8BB\ 8B\J	16gg\	.
.	16ff\JJ	.
=82	=82	=82
*	*^	*
8BB\ 8B\L	16ee/LL	4r	.
.	16dd#/	.	.
8G\ 8c\ 8e\J	16ee/	.	.
.	16b-/ [16gg/JJ	.	.
8E\L	16gg/LL]	4b-\	.
.	16ee/J	.	.
8B-\ 8c\ 8e\J	8gg/J	.	.
*	*v	*v	*
=83	=83	=83
8F\L	[4a\ [4ff\	.
8A\ 8c\ 8f\J	.	.
8C\L	16a\] 16ff\LL]	.
.	16a\	.
8A\ 8c\ 8f\J	16cc\	.
.	16ff\JJ	.
=84	=84	=84
8FF\ 8F\L	8cc\ 8ff\ 8aa\L	.
8A\ 8c\ 8f\J	8cc\ 8ff\ 8aa\J	.
8FF/ 8F/L	8cc\ 8ff\ 8aa\L	.
8FF#/ 8F#/J	8cc\ 8dd#\ 8aa-\J	.
=85	=85	=85
8GG\ 8G\L	8.cc\ 8.ee\ 8.gg\L	.
8G\ 8c\ 8e\J	.	.
.	16ee\Jk	.
8AA\ 8A\L	16cc\LL	.
.	16dd\J	.
8A\ 8c\ 8e\J	8ee\J	.
=86	=86	=86
8D\ 8d\L	4f#/ 4cc/	.
8AA\ 8A\J	.	.
4GG/ 4G/	16fn/ 16b/ 16dd/LK	.
.	8f/ 8b/ 8dd/	.
.	[16e/ [16g/ [16cc/Jk	.
=87	=87	=87
*>E1	*>E1	*>E1
8C\ 8c\	8e/] 8g/] 8cc/L]	.
8r	16g/L	.
.	16a/JJ	.
4r	(16b\LL	.
.	16cc\	.
.	16dd\	.
.	16ee\JJ)	.
=88:|!	=88:|!	=88:|!
*>E2	*>E2	*>E2
8C\ 8c\L	4e/ 4g/ 4cc/	.
8GG\ 8G\J	.	.
8CC/ 8C/	8cc\ 8ee\ 8gg\ 8ccc\	.
8r	8r	.
==	==	==
*-	*-	*-
!!!ENC: Craig Stuart Sapp
!!!END: 2005/01/20/
